vendor/shopware/storefront/Resources/app/storefront/dist/assets/icon/default/list.svg

<svg xmlns="http://www.w3.org/2000/svg" width="24" height="24" viewBox="0 0 24 24">
  <path fill="#758CA3" fill-rule="evenodd" d="M3,5 C2.44771525,5 2,4.55228475 2,4 C2,3.44771525 2.44771525,3 3,3 L4,3 C4.55228475,3 5,3.44771525 5,4 C5,4.55228475 4.55228475,5 4,5 L3,5 Z M3,9 C2.44771525,9 2,8.55228475 2,8 C2,7.44771525 2.44771525,7 3,7 L4,7 C4.55228475,7 5,7.44771525 5,8 C5,8.55228475 4.55228475,9 4,9 L3,9 Z M3,13 C2.44771525,13 2,12.5522847 2,12 C2,11.4477153 2.44771525,11 3,11 L4,11 C4.55228475,11 5,11.4477153 5,12 C5,12.5522847 4.55228475,13 4,13 L3,13 Z M3,17 C2.44771525,17 2,16.5522847 2,16 C2,15.4477153 2.44771525,15 3,15 L4,15 C4.55228475,15 5,15.4477153 5,16 C5,16.5522847 4.55228475,17 4,17 L3,17 Z M3,21 C2.44771525,21 2,20.5522847 2,20 C2,19.4477153 2.44771525,19 3,19 L4,19 C4.55228475,19 5,19.4477153 5,20 C5,20.5522847 4.55228475,21 4,21 L3,21 Z M8,5 C7.44771525,5 7,4.55228475 7,4 C7,3.44771525 7.44771525,3 8,3 L21,3 C21.5522847,3 22,3.44771525 22,4 C22,4.55228475 21.5522847,5 21,5 L8,5 Z M8,9 C7.44771525,9 7,8.55228475 7,8 C7,7.44771525 7.44771525,7 8,7 L21,7 C21.5522847,7 22,7.44771525 22,8 C22,8.55228475 21.5522847,9 21,9 L8,9 Z M8,13 C7.44771525,13 7,12.5522847 7,12 C7,11.4477153 7.44771525,11 8,11 L21,11 C21.5522847,11 22,11.4477153 22,12 C22,12.5522847 21.5522847,13 21,13 L8,13 Z M8,17 C7.44771525,17 7,16.5522847 7,16 C7,15.4477153 7.44771525,15 8,15 L21,15 C21.5522847,15 22,15.4477153 22,16 C22,16.5522847 21.5522847,17 21,17 L8,17 Z M8,21 C7.44771525,21 7,20.5522847 7,20 C7,19.4477153 7.44771525,19 8,19 L21,19 C21.5522847,19 22,19.4477153 22,20 C22,20.5522847 21.5522847,21 21,21 L8,21 Z"/>
</svg>

<svg xmlns="http://www.w3.org/2000/svg" width="24" height="24" viewBox="0 0 24 24"><path fill="#758CA3" fill-rule="evenodd" d="M3 5c-.5523 0-1-.4477-1-1s.4477-1 1-1h1c.5523 0 1 .4477 1 1s-.4477 1-1 1H3zm0 4c-.5523 0-1-.4477-1-1s.4477-1 1-1h1c.5523 0 1 .4477 1 1s-.4477 1-1 1H3zm0 4c-.5523 0-1-.4477-1-1s.4477-1 1-1h1c.5523 0 1 .4477 1 1s-.4477 1-1 1H3zm0 4c-.5523 0-1-.4477-1-1s.4477-1 1-1h1c.5523 0 1 .4477 1 1s-.4477 1-1 1H3zm0 4c-.5523 0-1-.4477-1-1s.4477-1 1-1h1c.5523 0 1 .4477 1 1s-.4477 1-1 1H3zM8 5c-.5523 0-1-.4477-1-1s.4477-1 1-1h13c.5523 0 1 .4477 1 1s-.4477 1-1 1H8zm0 4c-.5523 0-1-.4477-1-1s.4477-1 1-1h13c.5523 0 1 .4477 1 1s-.4477 1-1 1H8zm0 4c-.5523 0-1-.4477-1-1s.4477-1 1-1h13c.5523 0 1 .4477 1 1s-.4477 1-1 1H8zm0 4c-.5523 0-1-.4477-1-1s.4477-1 1-1h13c.5523 0 1 .4477 1 1s-.4477 1-1 1H8zm0 4c-.5523 0-1-.4477-1-1s.4477-1 1-1h13c.5523 0 1 .4477 1 1s-.4477 1-1 1H8z"/></svg>
